X:1
T:Sweet is the work, my God, my King
T:Sweet is the work, my God, my King
%%score { ( 1 2 ) | ( 3 4 ) }
L:1/8
Q:1/4=60
M:4/4
K:Eb
V:1 treble nm="Violinen" snm="Vln."
V:2 treble 
V:3 bass 
V:4 bass 
V:1
 G4 E2 G2 | A4 G4 | G4 G4 | G8 || G4 c2 c2 | B6 G2 | G4 F4 | F8 || G4 A2 A2 | B4 G4 | B4 B4 | B8 || %12
w: 1. Sweet is the|Work, my|God, my|King,|To praise Thy|Name, give|thanks and|sing,|To show Thy|love by|mor- ning|light,|
w: 2. Sweet is the|day of|sca- red|rest,|No mor- tal|cares shall|seize my|breast,|O may my|heart in|tune be|found,|
w: 3. My heart shall|tri- umph|in my|Lord,|And bless His|works and|bless His|Word,|Thy works of|grace, how|bright they|shine!|
w: 4. But I shall|share a|glor- ious|part,|When grace has|well re-|fined my|heart;|And fresh sup-|plies of|joy are|shed,|
w: 5. Sin my worst|e- ne-|my be-|fore,|Shall vex my|eyes and|ears no|more;|My in- ward|foes shall|all be|slain,|
w: 6. Then shall I|see, and|hear, and|know,|All I de-|sired and|wished be-|low;|And e- very|power found|sweet em-|ploy,|
 B4 c2 e2 | (B2 A2) G4 | F4 F4 | E8 |] %16
w: And talk of|all * Thy|thruth at|night.|
w: Like Da- vid's|harp * of|sol- emn|sound!|
w: How deep Thy|coun- * sels,|how div-|ine!|
w: Like ho- ly|oil, * to|cheer my|head.|
w: Nor Sa- tan|break * my|peace a-|gain.|
w: In that e-|tern * nal|world of|joy,|
V:2
 E4 E2 E2 | E4 E4 | F4 E4 | D8 || E4 E2 F2 | G6 E2 | E4 E4 | D8 || E4 E2 D2 | E4 E4 | F4 G4 | A8 || %12
 G4 E2 E2 | F4 E4 | E4 D4 | E8 |] %16
V:3
 B,4 G,2 B,2 | C4 B,4 | =B,4 C4 | =B,8 || _B,4 C2 D2 | E6 B,2 | =A,4 A,4 | B,8 || B,4 B,2 B,2 | %9
 B,4 B,4 | B,4 E4 | D8 || E4 C2 B,2 | B,4 B,4 | C4 B,2 A,2 | G,8 |] %16
V:4
 E,4 E,2 E,2 | E,4 E,4 | D,4 C,4 | G,8 || E,4 A,2 A,2 | E,6 E,2 | C,4 F,4 | B,,8 || E,4 F,2 F,2 | %9
 E,4 C,4 | A,4 G,4 | F,8 || E,4 A,2 G,2 | D,4 E,4 | A,,4 B,,4 | E,,8 |] %16

